svgs/sharp-solid/octagon-plus.svg

<svg xmlns="http://www.w3.org/2000/svg" viewBox="0 0 512 512"><!--! Font Awesome Pro 6.6.0 by @fontawesome - https://fontawesome.com License - https://fontawesome.com/license (Commercial License) Copyright 2024 Fonticons, Inc. --><path d="M0 160L0 352 160 512l192 0L512 352l0-192L352 0 160 0 0 160zM232 368l0-24 0-64-64 0-24 0 0-48 24 0 64 0 0-64 0-24 48 0 0 24 0 64 64 0 24 0 0 48-24 0-64 0 0 64 0 24-48 0z"/></svg>

<svg xmlns="http://www.w3.org/2000/svg" viewBox="0 0 512 512"><!--! Font Awesome Pro 6.4.2 by @fontawesome - https://fontawesome.com License - https://fontawesome.com/license (Commercial License) Copyright 2023 Fonticons, Inc. --><path d="M0 160V352L160 512H352L512 352V160L352 0H160L0 160zM232 368V344 280H168 144V232h24 64V168 144h48v24 64h64 24v48H344 280v64 24H232z"/></svg>
